flaticon/coffee-shop/coffee-cup-5.svg

<svg xmlns="http://www.w3.org/2000/svg" width="32" height="32" viewBox="0 0 24 24">
    <path d="M 23.570312 2.570312 L 22.914062 2.570312 L 20.914062 0.171875 C 20.828125 0.0429688 20.699219 0 20.570312 0 L 12.429688 0 C 12.300781 0 12.171875 0.0859375 12.042969 0.214844 L 10.472656 2.570312 L 9.855469 2.570312 C 9.601562 2.570312 9.429688 2.742188 9.429688 3 L 9.429688 4.285156 L 3 4.285156 C 2.871094 4.285156 2.742188 4.371094 2.613281 4.5 L 1.042969 6.855469 L 0.429688 6.855469 C 0.171875 6.855469 0 7.027344 0 7.285156 L 0 9 C 0 9.257812 0.171875 9.429688 0.429688 9.429688 L 0.914062 9.429688 L 1.449219 12.984375 C 1.355469 13.039062 1.269531 13.113281 1.199219 13.199219 C 1.027344 13.371094 0.941406 13.671875 0.984375 13.929688 L 1.671875 18.085938 C 1.738281 18.417969 1.960938 18.699219 2.28125 18.808594 L 2.914062 22.972656 C 3 23.570312 3.515625 24 4.113281 24 L 10.457031 24 C 11.058594 24 11.570312 23.570312 11.65625 22.972656 L 12.238281 18.902344 L 12.34375 19.542969 C 12.386719 19.800781 12.472656 20.570312 13.285156 20.570312 L 20.144531 20.570312 C 20.957031 20.570312 21.042969 19.800781 21.085938 19.542969 L 21.683594 15.394531 C 22.03125 15.292969 22.292969 14.988281 22.328125 14.570312 L 23.015625 9.601562 C 23.058594 9.34375 22.972656 9.085938 22.800781 8.871094 C 22.730469 8.785156 22.648438 8.714844 22.558594 8.65625 L 23.085938 5.144531 L 23.570312 5.144531 C 23.828125 5.144531 24 4.972656 24 4.714844 L 24 3 C 24 2.742188 23.828125 2.570312 23.570312 2.570312 Z M 12.6875 0.855469 L 20.398438 0.855469 L 21.8125 2.570312 L 11.527344 2.570312 Z M 10.285156 3.429688 L 23.144531 3.429688 L 23.144531 4.285156 L 10.285156 4.285156 Z M 13.714844 7.714844 L 13.714844 8.527344 L 13.285156 8.527344 C 13.222656 8.527344 13.160156 8.542969 13.105469 8.570312 L 0.855469 8.570312 L 0.855469 7.714844 Z M 3.257812 5.144531 L 10.941406 5.144531 L 12.371094 6.855469 L 2.101562 6.855469 Z M 12.769531 9.429688 L 12.257812 12.855469 L 2.269531 12.855469 L 1.800781 9.429688 Z M 1.84375 13.800781 L 1.84375 13.757812 C 1.84375 13.714844 1.886719 13.714844 1.886719 13.714844 L 12.6875 13.714844 L 12.726562 13.757812 L 12.667969 14.179688 L 12.042969 17.957031 C 12.042969 17.957031 12.042969 18 12 18 L 2.570312 18 C 2.527344 18 2.484375 17.957031 2.527344 17.957031 Z M 10.84375 22.84375 C 10.800781 23.015625 10.671875 23.144531 10.5 23.144531 L 4.113281 23.144531 C 3.941406 23.144531 3.769531 23.015625 3.769531 22.84375 L 3.171875 18.855469 L 11.441406 18.855469 Z M 20.1875 19.414062 C 20.1875 19.628906 20.144531 19.714844 20.101562 19.714844 L 13.242188 19.714844 C 13.242188 19.714844 13.199219 19.671875 13.15625 19.414062 L 12.957031 17.988281 L 13.382812 15.429688 L 20.785156 15.429688 Z M 22.15625 9.515625 L 21.472656 14.484375 C 21.472656 14.527344 21.472656 14.570312 21.429688 14.570312 L 13.523438 14.570312 L 13.628906 13.929688 C 13.636719 13.875 13.640625 13.824219 13.640625 13.773438 C 13.644531 13.554688 13.5625 13.339844 13.414062 13.15625 C 13.371094 13.070312 13.242188 12.984375 13.15625 12.941406 L 13.671875 9.429688 L 22.113281 9.429688 L 22.15625 9.472656 C 22.15625 9.472656 22.15625 9.472656 22.15625 9.515625 Z M 21.734375 8.527344 L 14.570312 8.527344 L 14.570312 7.285156 C 14.570312 7.027344 14.398438 6.855469 14.144531 6.855469 L 13.484375 6.855469 L 12.058594 5.144531 L 22.242188 5.144531 Z M 21.734375 8.527344"/>
</svg>

<svg xmlns="http://www.w3.org/2000/svg" width="32" height="32" viewBox="0 0 24 24">
    <path d="M23.57 2.57h-.656l-2-2.398A.39.39 0 0 0 20.57 0h-8.14c-.13 0-.258.086-.387.215l-1.57 2.355h-.618c-.253 0-.425.172-.425.43v1.285H3c-.129 0-.258.086-.387.215l-1.57 2.355H.43c-.258 0-.43.172-.43.43V9c0 .258.172.43.43.43h.484l.535 3.554a.937.937 0 0 0-.25.215c-.172.172-.258.473-.215.73l.688 4.157c.066.332.289.613.61.723l.632 4.164A1.204 1.204 0 0 0 4.114 24h6.343c.602 0 1.113-.43 1.2-1.027l.581-4.07.106.64c.043.258.129 1.027.941 1.027h6.86c.812 0 .898-.77.94-1.027l.599-4.148c.347-.102.609-.407.644-.825l.688-4.968c.043-.258-.043-.516-.215-.73a1.052 1.052 0 0 0-.242-.216l.527-3.511h.484c.258 0 .43-.172.43-.43V3c0-.258-.172-.43-.43-.43zM12.687.855h7.711l1.415 1.715H11.527zM10.285 3.43h12.86v.855h-12.86zm3.43 4.285v.812h-.43a.406.406 0 0 0-.18.043H.855v-.855zM3.258 5.145h7.683l1.43 1.71H2.101zM12.77 9.43l-.512 3.425H2.27L1.8 9.43zM1.844 13.8v-.042c0-.043.043-.043.043-.043h10.8l.04.043-.059.422-.625 3.777s0 .043-.043.043H2.57c-.043 0-.086-.043-.043-.043zm9 9.044c-.043.172-.172.3-.344.3H4.113c-.172 0-.343-.128-.343-.3l-.598-3.989h8.27zm9.344-3.43c0 .215-.043.3-.086.3h-6.86s-.043-.042-.086-.3l-.199-1.426.426-2.558h7.402zm1.968-9.898l-.683 4.968c0 .043 0 .086-.043.086h-7.907l.106-.64a.957.957 0 0 0-.215-.773c-.043-.087-.172-.173-.258-.216l.516-3.511h8.441l.043.043v.043zm-.422-.989H14.57V7.285c0-.258-.172-.43-.425-.43h-.66l-1.426-1.71h10.183zm0 0"/>
</svg>
